static/img/mobile/bottom-navbars-no-label-dark.svg

<svg fill="none" height="124" viewBox="0 0 960 124" width="960" xmlns="http://www.w3.org/2000/svg" xmlns:xlink="http://www.w3.org/1999/xlink"><clipPath id="a"><path d="m0 0h960v124h-960z"/></clipPath><clipPath id="b"><path d="m330.5 52h20v20h-20z"/></clipPath><g clip-path="url(#a)"><path d="m0 0h960v124h-960z" fill="#f1f1f6"/><path d="m0 0h388v44h-388z" fill="#171c1e" transform="translate(286 40)"/><rect fill="#353a40" height="28" rx="14" width="93" x="294" y="48"/><g clip-path="url(#b)"><path d="m340.5 53.6665c-4.6 0-8.333 3.7333-8.333 8.3333s3.733 8.3334 8.333 8.3334 8.334-3.7334 8.334-8.3334-3.734-8.3333-8.334-8.3333zm0 3.3333c1.725 0 3.125 1.4 3.125 3.125s-1.4 3.125-3.125 3.125-3.125-1.4-3.125-3.125 1.4-3.125 3.125-3.125zm0 11.6667c-2.366 0-4.45-1.25-5.633-3.1167.108-.0583.225-.1166.358-.175 1.017-.4666 2.892-1.1416 5.275-1.1416 2.392 0 4.267.675 5.275 1.1416.134.0584.25.125.359.1834-1.184 1.8666-3.259 3.1083-5.634 3.1083z" fill="#019aeb"/></g><g fill="#019aeb"><path d="m431 57.0002 1.667 1.6666h8.333c.458 0 .833-.375.833-.8333s-.375-.8333-.833-.8333h-7.5l-1.425-1.425c-.158-.1584-.367-.2417-.592-.2417h-4.658c-.917 0-1.667.75-1.667 1.6667v10c0 .9166.75 1.6666 1.667 1.6666h12.058c.809 0 1.5-.5833 1.642-1.375l.05-.2916.908-5.125c.184-1.0167-.608-1.9584-1.641-1.9584h-10.359c-.808 0-1.5.5834-1.641 1.375l-1.009 5.7084v-10z"/><path d="m526.5 53.6665c-3.259.0333-5.867 2.7-5.834 5.95v.05c-.016 2.6083 1.65 4.9333 4.134 5.75l1.308 3.775c.133.375.658.375.792 0l1.308-3.775c3.158-1.05 4.875-4.4583 3.825-7.625-.792-2.4-3-4.0417-5.525-4.125zm0 8.3333c-1.384 0-2.5-1.1166-2.5-2.5 0-1.3833 1.116-2.5 2.5-2.5 1.383 0 2.5 1.1167 2.5 2.5 0 1.3834-1.117 2.5-2.5 2.5z"/><path d="m625.592 61.9832c0-.2667-.025-.525-.059-.7834l1.392-1.1166c.325-.2584.408-.7167.2-1.0667l-.625-1.0667-.617-1.075c-.208-.3583-.641-.5083-1.025-.3583l-1.641.6417c-.417-.325-.884-.6-1.375-.8084l-.267-1.725c-.058-.4083-.417-.7083-.825-.7083h-1.242-1.241c-.417 0-.767.3-.825.7083l-.259 1.7084c-.508.2083-.983.4833-1.408.8166l-1.608-.6333c-.384-.15-.825 0-1.025.3583l-.617 1.075-.625 1.0667c-.208.3583-.125.8083.2 1.0667l1.35 1.0833c-.033.2667-.058.5417-.058.8167s.025.5666.066.8416l-1.35 1.0834c-.325.2583-.408.7166-.2 1.0666l.625 1.0667.617 1.075c.208.3583.642.5083 1.025.3583l1.633-.6416c.425.3166.884.5916 1.384.7916l.266 1.7417c.059.4083.417.7083.825.7083h1.242 1.242c.416 0 .766-.3.825-.7083l.266-1.7583c.484-.2.934-.475 1.35-.7834l1.667.65c.383.15.825 0 1.025-.3583l.617-1.075.625-1.0667c.208-.3583.125-.8083-.2-1.0666l-1.392-1.1167c.033-.2667.058-.5333.058-.8083zm-5.517 2.8833c-2.058.3917-3.825-1.375-3.433-3.4333.216-1.1417 1.15-2.075 2.291-2.2917 2.059-.3917 3.825 1.375 3.434 3.4333-.217 1.1417-1.15 2.075-2.292 2.2917z"/></g></g></svg>

<svg width="960" height="124" viewBox="0 0 960 124" fill="none" xmlns="http://www.w3.org/2000/svg">
<g clip-path="url(#clip0_650_123582)">
<rect width="960" height="124" fill="#F1F1F6"/>
<rect width="388" height="44" transform="translate(286 40)" fill="#171C1E"/>
<rect x="294" y="48" width="93" height="28" rx="14" fill="#353A40"/>
<g clip-path="url(#clip1_650_123582)">
<path d="M340.5 53.6665C335.9 53.6665 332.167 57.3998 332.167 61.9998C332.167 66.5998 335.9 70.3332 340.5 70.3332C345.1 70.3332 348.834 66.5998 348.834 61.9998C348.834 57.3998 345.1 53.6665 340.5 53.6665ZM340.5 56.9998C342.225 56.9998 343.625 58.3998 343.625 60.1248C343.625 61.8498 342.225 63.2498 340.5 63.2498C338.775 63.2498 337.375 61.8498 337.375 60.1248C337.375 58.3998 338.775 56.9998 340.5 56.9998ZM340.5 68.6665C338.134 68.6665 336.05 67.4165 334.867 65.5498C334.975 65.4915 335.092 65.4332 335.225 65.3748C336.242 64.9082 338.117 64.2332 340.5 64.2332C342.892 64.2332 344.767 64.9082 345.775 65.3748C345.909 65.4332 346.025 65.4998 346.134 65.5582C344.95 67.4248 342.875 68.6665 340.5 68.6665Z" fill="#019AEB"/>
</g>
<path d="M431 57.0002L432.667 58.6668H441C441.458 58.6668 441.833 58.2918 441.833 57.8335C441.833 57.3752 441.458 57.0002 441 57.0002H433.5L432.075 55.5752C431.917 55.4168 431.708 55.3335 431.483 55.3335H426.825C425.908 55.3335 425.158 56.0835 425.158 57.0002V67.0002C425.158 67.9168 425.908 68.6668 426.825 68.6668H438.883C439.692 68.6668 440.383 68.0835 440.525 67.2918L440.575 67.0002L441.483 61.8752C441.667 60.8585 440.875 59.9168 439.842 59.9168H429.483C428.675 59.9168 427.983 60.5002 427.842 61.2918L426.833 67.0002V57.0002H431Z" fill="#019AEB"/>
<path d="M526.5 53.6665C523.241 53.6998 520.633 56.3665 520.666 59.6165C520.666 59.6332 520.666 59.6498 520.666 59.6665C520.65 62.2748 522.316 64.5998 524.8 65.4165L526.108 69.1915C526.241 69.5665 526.766 69.5665 526.9 69.1915L528.208 65.4165C531.366 64.3665 533.083 60.9582 532.033 57.7915C531.241 55.3915 529.033 53.7498 526.508 53.6665H526.5ZM526.5 61.9998C525.116 61.9998 524 60.8832 524 59.4998C524 58.1165 525.116 56.9998 526.5 56.9998C527.883 56.9998 529 58.1165 529 59.4998C529 60.8832 527.883 61.9998 526.5 61.9998Z" fill="#019AEB"/>
<path d="M625.592 61.9832C625.592 61.7165 625.567 61.4582 625.533 61.1998L626.925 60.0832C627.25 59.8248 627.333 59.3665 627.125 59.0165L626.5 57.9498L625.883 56.8748C625.675 56.5165 625.242 56.3665 624.858 56.5165L623.217 57.1582C622.8 56.8332 622.333 56.5582 621.842 56.3498L621.575 54.6248C621.517 54.2165 621.158 53.9165 620.75 53.9165H619.508H618.267C617.85 53.9165 617.5 54.2165 617.442 54.6248L617.183 56.3332C616.675 56.5415 616.2 56.8165 615.775 57.1498L614.167 56.5165C613.783 56.3665 613.342 56.5165 613.142 56.8748L612.525 57.9498L611.9 59.0165C611.692 59.3748 611.775 59.8248 612.1 60.0832L613.45 61.1665C613.417 61.4332 613.392 61.7082 613.392 61.9832C613.392 62.2582 613.417 62.5498 613.458 62.8248L612.108 63.9082C611.783 64.1665 611.7 64.6248 611.908 64.9748L612.533 66.0415L613.15 67.1165C613.358 67.4748 613.792 67.6248 614.175 67.4748L615.808 66.8332C616.233 67.1498 616.692 67.4248 617.192 67.6248L617.458 69.3665C617.517 69.7748 617.875 70.0748 618.283 70.0748H619.525H620.767C621.183 70.0748 621.533 69.7748 621.592 69.3665L621.858 67.6082C622.342 67.4082 622.792 67.1332 623.208 66.8248L624.875 67.4748C625.258 67.6248 625.7 67.4748 625.9 67.1165L626.517 66.0415L627.142 64.9748C627.35 64.6165 627.267 64.1665 626.942 63.9082L625.55 62.7915C625.583 62.5248 625.608 62.2582 625.608 61.9832H625.592ZM620.075 64.8665C618.017 65.2582 616.25 63.4915 616.642 61.4332C616.858 60.2915 617.792 59.3582 618.933 59.1415C620.992 58.7498 622.758 60.5165 622.367 62.5748C622.15 63.7165 621.217 64.6498 620.075 64.8665Z" fill="#019AEB"/>
</g>
<defs>
<clipPath id="clip0_650_123582">
<rect width="960" height="124" fill="white"/>
</clipPath>
<clipPath id="clip1_650_123582">
<rect width="20" height="20" fill="white" transform="translate(330.5 52)"/>
</clipPath>
</defs>
</svg>
